X:802
T:Ashokan Farewell (part 2)
M:3/4
C: Jay Ungar, 1983
K:D
D6 | F6 | G6 | D6 | D6 | F6 | B4A2 | G6 | F6 | =C6 | G6 | B,6 | A,6 | D4d2 | A4G2 | F6 | F6 | A6 |
G3AB2 | A2D4 | A,6 | F3ED2 | C6 | E6 | A,6 | =C2E2F2 | G4B2 | A6 | F6 | D6 | B,6 | A,4||
||FG | A3 GFE | D4D2 | E3 DEF | F2B,3G | F2A,2D2 | F2A2B2 | d3ed2 | c4de | f3ed2 |
A4GA | B3AGF | F2B,2G | A,6 | D4A2 | A4G2 | F6 | A,2A2F2 | DEF2F2 | G2A2B2|
A2D2G2 | F2D2A,2 | F3ED2 | CDE2GF | E4A2 | A,2D2E2 | =C2E2F2 | G4A2|
d2A2F2 | D2F2A2 | d4dc | B3AG2 | A4||
